X: 8906
T: Curlew, The
R: jig
M: 6/8
K: Dmajor
d3 A2d|BAA dBA|d3 A2d|BAA aef|
d3 A2d|BAA dBA|g2f efd|cAA aef:|
|:ddd fff|aba afe|d2f aed|cAA aef|
ddd fff|aba afe|g2f efd|1 cAA aef:|2 cAA az2|
|:d3 GBA|dcd ecA|d2d GBA|Ace aef|
d3 GBA|dcd ecA|g2f efd|cAA aef:|
|:ddd fff|aba afe|d2f aed|cAA aef|
[1 ddd fff|aba afe|g2f efd|cAA aef:|2 d3 GBA|dcd ecA|g2f efd|cAA aef||

